src/icons/vm-running.svg

<svg width="16" height="16" viewBox="0 0 16 16" fill="none" xmlns="http://www.w3.org/2000/svg">
<path fill-rule="evenodd" clip-rule="evenodd" d="M1.5 2H14.5L15 2.5V8.00305C14.6892 7.76964 14.3534 7.57413 14 7.41955V3H2V12H7C7 12.326 7.03187 12.6527 7.09608 12.9755C7.24266 13.7124 7.55277 14.4037 8 15H4V14H7V13H1.5L1 12.5V2.5L1.5 2Z" fill="#C5C5C5"/>
<path d="M12 8C12.3672 8 12.7214 8.04688 13.0625 8.14062C13.4036 8.23438 13.7214 8.36979 14.0156 8.54688C14.3099 8.72396 14.5794 8.93229 14.8242 9.17188C15.069 9.41146 15.2786 9.68099 15.4531 9.98047C15.6276 10.2799 15.7617 10.599 15.8555 10.9375C15.9492 11.276 15.9974 11.6302 16 12C16 12.3672 15.9531 12.7214 15.8594 13.0625C15.7656 13.4036 15.6302 13.7214 15.4531 14.0156C15.276 14.3099 15.0677 14.5794 14.8281 14.8242C14.5885 15.069 14.319 15.2786 14.0195 15.4531C13.7201 15.6276 13.401 15.7617 13.0625 15.8555C12.724 15.9492 12.3698 15.9974 12 16C11.6328 16 11.2786 15.9531 10.9375 15.8594C10.5964 15.7656 10.2786 15.6302 9.98438 15.4531C9.6901 15.276 9.42057 15.0677 9.17578 14.8281C8.93099 14.5885 8.72135 14.319 8.54688 14.0195C8.3724 13.7201 8.23828 13.401 8.14453 13.0625C8.05078 12.724 8.0026 12.3698 8 12C8 11.6328 8.04688 11.2786 8.14062 10.9375C8.23438 10.5964 8.36979 10.2786 8.54688 9.98438C8.72396 9.6901 8.93229 9.42057 9.17188 9.17578C9.41146 8.93099 9.68099 8.72135 9.98047 8.54688C10.2799 8.3724 10.599 8.23828 10.9375 8.14453C11.276 8.05078 11.6302 8.0026 12 8ZM14 11.9883L11 10V14L14 11.9883Z" fill="#C5C5C5"/>
</svg>

<svg width="16" height="16" xmlns="http://www.w3.org/2000/svg"><path fill-rule="evenodd" clip-rule="evenodd" d="M1.5 2h13l.5.5v5.503a5.006 5.006 0 0 0-1-.583V3H2v9h5a5 5 0 0 0 1 3H4v-1h3v-1H1.5l-.5-.5v-10l.5-.5z"/><path d="M12 8c.367 0 .721.047 1.063.14.34.094.658.23.953.407.294.177.563.385.808.625.245.24.455.509.63.808a4.03 4.03 0 0 1 .405 3.082c-.093.342-.229.66-.406.954a4.382 4.382 0 0 1-.625.808c-.24.245-.509.455-.808.63a4.029 4.029 0 0 1-3.082.405 3.784 3.784 0 0 1-.954-.406 4.382 4.382 0 0 1-.808-.625 3.808 3.808 0 0 1-.63-.808 4.027 4.027 0 0 1-.405-3.082c.093-.342.229-.66.406-.954.177-.294.385-.563.625-.808.24-.245.509-.455.808-.63A4.028 4.028 0 0 1 12 8zm2 3.988L11 10v4l3-2.012z"/></svg>
